!!!Melodie: eigene
!!!Typ: Lied
**kern	**silbe	**silbe	**silbe	**silbe	**silbe	**silbe	**silbe	**silbe	**silbe	**silbe	**silbe	**silbe	**silbe	**silbe	**silbe	**silbe	**silbe	**silbe	**silbe	**silbe	**silbe	**silbe	**silbe	**silbe	**silbe	**silbe	**silbe	**silbe
*clefG2	*lang:DE	*lang:DE	*lang:DE	*lang:DE	*lang:DE	*lang:DE	*lang:DE	*lang:DE	*lang:DE	*lang:DE	*lang:DE	*lang:DE	*lang:DE	*lang:DE	*lang:DE	*lang:DE	*lang:DE	*lang:DE	*lang:DE	*lang:DE	*lang:DE	*lang:DE	*lang:DE	*lang:DE	*lang:DE	*lang:DE	*lang:DE	*lang:DE
*k[b-]	*	*	*	*	*	*	*	*	*	*	*	*	*	*	*	*	*	*	*	*	*	*	*	*	*	*	*	*
*M3/4	*	*	*	*	*	*	*	*	*	*	*	*	*	*	*	*	*	*	*	*	*	*	*	*	*	*	*	*
4cc	Je#	Wie	Je#	mich	Je#	Hilf,	Je#	wenn	Je#	dass	Je#	und	Je#	Wenn	Je#	Wer	Je#	und	Je#	lass	Je#	wenn	Je#	So	Je#	Ba#	Je#	Klei#
8Ldd	#su,	sie	#su,	zu	#su,	wenn	#su,	ich	#su,	bei	#su,	ich	#su,	mir	#su,	mag	#su,	mit	#su,	dein	#su,	kein	#su,	will	#su,	#bel,	#su,	#de
8Jcc	|	|	|	|	|	|	|	|	|	|	|	|	|	|	|	|	|	|	|	|	|	|	|	|	|	|	|	|
8Lb-	hilf	ihr	hilf	be#	hilf	die	hilf	die	hilf	mir	hilf	mich	hilf	die	hilf	doch	hilf	dem	hilf	Ge#	hilf	Ver#	hilf	ich	hilf	die	hilf	dein
8Jcc	|	|	|	|	|	|	|	|	|	|	|	|	|	|	|	|	|	|	|	|	|	|	|	|	|	|	|	|
=	=	=	=	=	=	=	=	=	=	=	=	=	=	=	=	=	=	=	=	=	=	=	=	=	=	=	=	=
4a	sie#	höl#	sie#	#rük#	sie#	Sün#	sie#	Last	sie#	le#	sie#	stets	sie#	höl#	sie#	des#	sie#	Schei#	sie#	#bet	sie#	#mö#	sie#	e#	sie#	Stol#	sie#	Zi#
4a	#gen!	#lisch#	#gen!	#ken	#gen!	#den	#gen!	der	#gen!	#be	#gen!	in	#gen	#li#	#gen!	#sen	#gen!	#ne	#gen	mich	#gen!	#gen	#gen!	#wig	#gen!	#ze,	#gen!	#on
4d	Du	#es	Der	ganz	Ach!	der	Wenn	Be#	Und	des	Da#	dein’	in	#schen	Wer	Ver#	Und	der	im	un#	Wenn	zu	Und	dir	Lass	ist	Da#	mit
=	=	=	=	=	=	=	=	=	=	=	=	=	=	=	=	=	=	=	=	=	=	=	=	=	=	=	=	=
4e	Für#	Heer	du	grim#	Wer	Ju#	in	#gier#	le#	Geis#	#mit	Wol#	al#	Fein#	mag	#su#	lass	Wahr#	Wa#	#end#	al#	be#	lass	Lob	doch	end#	#mit	gol#
4f	#ste	nicht	mich	#mig	muss	#gend	mir	#den	#ge	#tes	auch	#len	#ler#	#de	sonst	#chung	mich	#heit	#chen	#lich	#les	#ten	mir’s	und	bald	#lich	wir	#de#
4g	des	ver#	er#	an#	nicht	mich	die	emp#	ge#	Ver#	mein	ver#	#lei	nach#	be#	ent#	nicht	sich	und	ver#	ver#	sich	ge#	Dank	er#	ge#	uns	#nen
=	=	=	=	=	=	=	=	=	=	=	=	=	=	=	=	=	=	=	=	=	=	=	=	=	=	=	=	=
(4.a	Le#	#ge#	#kau#	#lau#	kla#	na#	Sün#	#fin#	#fang#	#lang#	Wil#	#hül#	Fäl#	#stel#	#ste#	#ge#	sin#	schmin#	Be#	#tre#	#schwin#	fin#	#ling#	sing#	#schal#	#fal#	schik#	Stük#
8g)	|	|	|	|	|	|	|	|	|	|	|	|	|	|	|	|	|	|	|	|	|	|	|	|	|	|	|	|
4;f	#bens,	#bens	#fet,	#et,	#gen?	#gen,	#de,	#de,	#en	#en	#le	#le,	#len!	#len,	#hen	#hen,	#ken	#ken;	#ten!	#ten,	#det	#det,	#en,	#en,	#len,	#len,	#ken	#ken,
=	=	=	=	=	=	=	=	=	=	=	=	=	=	=	=	=	=	=	=	=	=	=	=	=	=	=	=	=
4ff	sieh,	mäch#	ret#	o#	Herr,	die	Ei#	und	in	auf#	dir,	wo	Gib	dich	wi#	der	wenn	lass	Hü#	der	und	wenn	dass	Je#	dass	Die	wür#	lass
4ff	wie	#tig	#te,	#der	mein	mein	#gen#	sich	mir	#wärts	Herr,	sich	mir	mir	#der	wie	sich	doch	#ter,	du	ich	ich	ich	#su,	Zi#	da	#dig	uns
4ee	die	auf#	wenn	auch	Ge#	Ge#	#lieb’,	mein	die	sich	sei	die	die	zu	den	ein	die	viel	du	ver#	mein	muss	das	mein	#on	bis#	zur	den
=	=	=	=	=	=	=	=	=	=	=	=	=	=	=	=	=	=	=	=	=	=	=	=	=	=	=	=	=
4.dd	Fin#	#füh#	Fleisch	schmei#	#bre#	#wis#	Hof#	tie#	Lüs#	schwing#	gänz#	See#	Waf#	rau#	lis#	Eng#	Kräf#	hel#	schläfst	#spro#	Nichts	sein	Zei#	Hei#	ru#	#he#	Hoch#	Un#
8ee	#ster#	#ret	und	#chelnd	#chen	#sen	#art	#fes	#te	#end	#lich	#le	#fen	#ben,	#tig'	#el	#te	#ler	ja	#chen	und	ein	#chen	#land,	#fet:	#ro	#zeit	#ter#
4cc	#nis	mir	Blut,	sich	ist	mir	und	Ver#	des	durch	zu	zur	und	O	ver#	des	der	dann	und	mein’	Ver#	ver#	des	mit	es	so	des	#gang
=	=	=	=	=	=	=	=	=	=	=	=	=	=	=	=	=	=	=	=	=	=	=	=	=	=	=	=	=
4.cc	drin#	schäd#	Sa#	lis#	im#	täg#	Miss#	#der#	Flei#	hei#	ei#	Ru#	Weh#	e#	#schmi#	Lich#	Lü#	dei#	schlum#	Für#	#der#	#schüch#	Sie#	fro#	ist	lang	Lam#	Ba#
8dd	#get	#lich	#tan	#tig	#mer	#lich	#gunst	#ben	#sches	#li#	#gen	#he	#re	#del#	#tze#	#tes	#gen	#ne	#merst	#sprach'	#ben	#ter#	#ges	#hem	nun	hat	#mes	#bels
4b	her#	zu	und	ver#	vor	hält	sich	dar#	und	#gen	ge#	hin#	zur	#stes	#ten	er#	auf#	Kraft	nicht	zu	nur	#tes	er#	Ge#	voll#	ge#	zu	einst
=	=	=	=	=	=	=	=	=	=	=	=	=	=	=	=	=	=	=	=	=	=	=	=	=	=	=	=	=
2.;cc	#ein;	sein:	Welt	#stellt.	mir!	für:	regt,	#legt;	gib,	Trieb!	#schenkt,	#lenkt;	Hand;	Pfand:	Feind?	#scheint?	#bläh'n,	seh’n!	ein:	sein:	seh’;	Reh:	#lang',	#sang.	#bracht;	#kracht.	geh’n;	seh’n!
=:|	=	=	=	=	=	=	=	=	=	=	=	=	=	=	=	=	=	=	=	=	=	=	=	=	=	=	=	=
4g	.	Sa#	.	Wenn	.	Ach!	.	so	.	Lass	.	Lass	.	so	.	Ach!	.	Steh’	.	wenn	.	Ach!	.	Wie	.	Ach!	.	Doch
8Lg	.	#tan	.	Ba#	.	Lass	.	hilf,	.	mich	.	mich	.	hilf	.	Herr,	.	mir	.	mich	.	Herr,	.	wird	.	Herr,	.	wohl#
8Ja	.	|	.	|	.	|	.	|	.	|	.	|	.	|	.	|	.	|	.	|	.	|	.	|	.	|	.	|
8Lg	.	der	.	#bel	.	mich	.	dass	.	ein#	.	mir	.	mir	.	wo	.	zur	.	die	.	so	.	dein	.	komm,	.	#an!
8Jf	.	|	.	|	.	|	.	|	.	|	.	|	.	|	.	|	.	|	.	|	.	|	.	|	.	|	.	|
=	=	=	=	=	=	=	=	=	=	=	=	=	=	=	=	=	=	=	=	=	=	=	=	=	=	=	=	=
4e	.	sin#	.	wü#	.	schmek#	.	ich	.	#dring#	.	ster#	.	Schwa#	.	du	.	Rech#	.	Nacht	.	wollst	.	Na#	.	ma#	.	Kracht
4c	.	#net	.	#tet	.	#ken	.	vor	.	#en	.	#ben	.	#chen	.	weichst,	.	#ten,	.	mit	.	du	.	#me	.	#che	.	es,
4cc	.	auf	.	von	.	dein	.	mir	.	ins	.	und	.	mit	.	so	.	O	.	Er#	.	im	.	da	.	ein	.	so
=	=	=	=	=	=	=	=	=	=	=	=	=	=	=	=	=	=	=	=	=	=	=	=	=	=	=	=	=
4.b-	.	al#	.	au#	.	kräf#	.	selbst	.	gött#	.	al#	.	All#	.	muss	.	Kö#	.	#mü#	.	Grun#	.	wer#	.	En#	.	wird
8a	.	#ler#	.	#ßen	.	#tig's	.	mag	.	#li#	.	#le	.	#macht	.	ich	.	#nig	.	#dung	.	#de	.	#den	.	#de	.	es
8Lb-	.	#hand	.	und	.	Ver#	.	er#	.	#che	.	dem	.	und	.	ja	.	und	.	will	.	der	.	ge#	.	des	.	bald
8Jcc	.	|	.	|	.	|	.	|	.	|	.	|	.	|	.	|	.	|	.	|	.	|	.	|	.	|	.	|
=	=	=	=	=	=	=	=	=	=	=	=	=	=	=	=	=	=	=	=	=	=	=	=	=	=	=	=	=
(4.a	.	Rän#	.	in#	.	#süh#	.	#rö#	.	We#	.	Mei#	.	Stär#	.	ir#	.	Mei#	.	dek#	.	See#	.	#prie#	.	Krie#	.	lie#
8g)	.	|	.	|	.	|	.	|	.	|	.	|	.	|	.	|	.	|	.	|	.	|	.	|	.	|	.	|
4;f	.	#ke,	.	#nen,	.	#nen,	.	#ten	.	#sen;	.	#nen,	.	#ke,	.	#ren,	.	#ster!	.	#ken,	.	#len	.	#sen,	.	#ges,	.	#gen;
=	=	=	=	=	=	=	=	=	=	=	=	=	=	=	=	=	=	=	=	=	=	=	=	=	=	=	=	=
8ddL	.	wie	.	lass	.	und	.	und	.	so	.	dass	.	dass	.	wenn	.	Leh#	.	wollst	.	dich	.	wo	.	schmük#	.	auf!
8Jcc	.	|	.	|	.	|	.	|	.	|	.	|	.	|	.	|	.	|	.	|	.	|	.	|	.	|	.	|
8Lb-	.	er	.	mir,	.	dies	.	durch	.	wird	.	ich	.	ich,	.	mich	.	#re	.	du	.	mit	.	du,	.	#ke	.	Zi#
8Ja	.	|	.	|	.	|	.	|	.	|	.	|	.	|	.	|	.	|	.	|	.	|	.	|	.	|	.	|
8Lg	.	mich	.	Herr,	.	zu	.	dein	.	mein	.	mich	.	o	.	der	.	mich	.	mich,	.	dem	.	O	.	dein	.	#on!
8Jf	.	|	.	|	.	|	.	|	.	|	.	|	.	|	.	|	.	|	.	|	.	|	.	|	.	|	.	|
=	=	=	=	=	=	=	=	=	=	=	=	=	=	=	=	=	=	=	=	=	=	=	=	=	=	=	=	=
4e	.	sich#	.	nie#	.	mei#	.	Lei#	.	Geist,	.	zäh#	.	Lieb#	.	Schlan#	.	kämp#	.	Je#	.	in#	.	Held,	.	Zi#	.	Rüs#
4c	.	#te,	.	#mals	.	#ner	.	#den	.	Leib	.	#len	.	#ster,	.	#gen	.	#fen	.	#su,	.	#ner#	.	dich	.	#on	.	#te
4f	.	ver#	.	die	.	De#	.	mein	.	und	.	kann	.	dein	.	List	.	und	.	er#	.	#sten	.	so	.	mit	.	dich,
=	=	=	=	=	=	=	=	=	=	=	=	=	=	=	=	=	=	=	=	=	=	=	=	=	=	=	=	=
4.f	.	#stö#	.	Hil#	.	#mü#	.	sünd#	.	See#	.	un#	.	Da#	.	sucht	.	prü#	.	#mun#	.	Seuf#	.	mäch#	.	Pal#	.	Je#
8g	.	#re	.	#fe	.	#ti#	.	#lich'	.	#le	.	#ter	.	#sein	.	zu	.	#fen	.	#tern	.	#zen	.	#tig	.	#men	.	#sus
4e	.	und	.	zer#	.	#gung	.	Fleisch	.	ge#	.	die	.	ver#	.	ver#	.	die	.	und	.	ver#	.	er#	.	des	.	hilft
=	=	=	=	=	=	=	=	=	=	=	=	=	=	=	=	=	=	=	=	=	=	=	=	=	=	=	=	=
2f	.	krän#	.	#rin#	.	die#	.	tö#	.	#ne#	.	dei#	.	#mer#	.	#wir#	.	Gei#	.	wek#	.	#mäh#	.	#wie#	.	Sie#	.	sie#
4;f	.	#ke.	.	#nen.	.	#nen.	.	#ten!	.	#sen.	.	#nen.	.	#ke.	.	#ren.	.	#ster.	.	#ken.	.	#len.	.	#sen!	.	#ges!	.	#gen.
==	==	==	==	==	==	==	==	==	==	==	==	==	==	==	==	==	==	==	==	==	==	==	==	==	==	==	==	==
*-	*-	*-	*-	*-	*-	*-	*-	*-	*-	*-	*-	*-	*-	*-	*-	*-	*-	*-	*-	*-	*-	*-	*-	*-	*-	*-	*-	*-
